X: 293
T: The Road to Drocherday
R: jig
M: 6/8
L: 1/8
Z: 2012 John Chambers <jc:trillian.mit.edu>
B: J. Anderson "Budget of Strathspeys, Reels and Country Dances" (Early 1800s) p.29 #3
F: http://imslp.org/wiki/Anderson%27s_Budget_of_Strathspeys,_Reels_and_Country_Dances_(Various)
N: This is a close relative of "The Gobby-O" and "Jefferson and Liberty"
N: The 2nd part has no repeat signs, but could be repeated.
K: Am
B |\
c2A AGA | E2A ABc | B2G GAG | dBG GAB |\
cdc BcB | ABA g3  | edc BAG | EAA A2 :|
E |\
A2B c2d | ede g3  | faf g2e | dBG GAB |\
cdc BcB | ABA g2g | edc BAG | EAA A2 |]

%%sep 2 1 500
%%sep 1 1 500

